X:346
T:Bred in the Bone
M:6/8
C:© Paul Gitlitz 2013
K:F
"Dm"AFA "Gm"BGB|"Dm"AFA "C"GFE|"Dm/F"FDF "Gm"GEG|"F/A"FAG "Dm"FED|!
"Bb"DB,D "Bbdim"EB,E|"Bb"FB,F "Gm"GB,G|1"A7"A^CA "Bb"BcB|"A"A4-AA:|2"A7"^CDE "Bb
"FEB,|"A"A,6|!
|:"Edim"DEB "A7"^ceg|"Dm"fa^g  "F"fed|"A7"A^ce "Bbdim"Bcg|"Dm"f6|!
"A7"ag^c "Gm6"egb|"Dm"afd  "F/C"AFD|"A7"E^CA, "Bb"B,FE|"Dm"D6:|]
